X: 179
T: the Tossing of the Hay   #2
R: air, march
%S: s:1 b:8
B: O'Neill's 1850 #179
O: F.O'Neill
Z: 1997 henrik.norbeck@mailbox.swipnet.se
N: Compacted by using labels and play order [JC]
P: Play AB BA
Q: "Moderate"
M: 2/4
L: 1/8
K: G
"^A"[|] D2 !segno!| G>A Bc | dg fd | ec AF | "^fine"G2 \
"^B"|: (3def | gf  eg | fg af | gf ed | g2 :| B!segno!A |]
